X:2664
T:Caribou Reel  (Em)
C:Andy De Jarlis
M:2/4
L:1/16
K:Em
B2|Be2e efed|Be2e efed|Bd2d dedc|BGBc dedc|!
Be2e efed|Bdef g2fg|afge fde^c|dBAF E2:|!
|:Bc|BGE2 EFGA|BGE2 EcBA|D3D D2DD|A,DDD D2Bc|!
BGE2 EFGA|BGBe e3e|efed Bcd^B|AGF^D E4:|!


